assets/efishery/peti-es.svg

<svg width="24" height="25" viewBox="0 0 24 25" fill="none" xmlns="http://www.w3.org/2000/svg">
<path d="M7.75 5.52344C7.75 5.24731 7.97388 5.02344 8.25 5.02344C8.38855 5.02344 8.51392 5.07983 8.60449 5.1709C8.69446 5.26123 8.75 5.38574 8.75 5.52344V6.52344C8.75 6.79956 8.52612 7.02344 8.25 7.02344C7.97388 7.02344 7.75 6.79956 7.75 6.52344V5.52344Z" fill="#1D1D1D"/>
<path d="M8.25 13.0234C7.97388 13.0234 7.75 13.2473 7.75 13.5234V14.5234C7.75 14.7996 7.97388 15.0234 8.25 15.0234C8.52612 15.0234 8.75 14.7996 8.75 14.5234V13.5234C8.75 13.2473 8.52612 13.0234 8.25 13.0234Z" fill="#1D1D1D"/>
<path fill-rule="evenodd" clip-rule="evenodd" d="M7.75 1.27344C6.2312 1.27344 5 2.50464 5 4.02344V19.0234C5 20.5422 6.2312 21.7734 7.75 21.7734V22.0234C7.75 22.5757 8.19775 23.0234 8.75 23.0234C9.30225 23.0234 9.75 22.5757 9.75 22.0234V21.7734H13.75V22.0234C13.75 22.5757 14.1978 23.0234 14.75 23.0234C15.3022 23.0234 15.75 22.5757 15.75 22.0234V21.7734C17.2688 21.7734 18.5 20.5422 18.5 19.0234V4.02344C18.5 2.50464 17.2688 1.27344 15.75 1.27344H7.75ZM6.5 4.02344C6.5 3.33301 7.05969 2.77344 7.75 2.77344H15.75C16.4403 2.77344 17 3.33301 17 4.02344V9.02344H6.5V4.02344ZM6.5 10.0234V19.0234C6.5 19.7139 7.05969 20.2734 7.75 20.2734H15.75C16.4403 20.2734 17 19.7139 17 19.0234V10.0234H6.5Z" fill="#1D1D1D"/>
</svg>

<svg viewBox="0 0 24 25" xmlns="http://www.w3.org/2000/svg">
  <path d="M7.75 5.523a.5.5 0 0 1 1 0v1a.5.5 0 0 1-1 0v-1zM8.25 13.023a.5.5 0 0 0-.5.5v1a.5.5 0 1 0 1 0v-1a.5.5 0 0 0-.5-.5z"/>
  <path fill-rule="evenodd" clip-rule="evenodd" d="M7.75 1.273A2.75 2.75 0 0 0 5 4.023v15a2.75 2.75 0 0 0 2.75 2.75v.25a1 1 0 0 0 2 0v-.25h4v.25a1 1 0 0 0 2 0v-.25a2.75 2.75 0 0 0 2.75-2.75v-15a2.75 2.75 0 0 0-2.75-2.75h-8zM6.5 4.023c0-.69.56-1.25 1.25-1.25h8c.69 0 1.25.56 1.25 1.25v5H6.5v-5zm0 6v9c0 .69.56 1.25 1.25 1.25h8c.69 0 1.25-.56 1.25-1.25v-9H6.5z"/>
</svg>
